assets/Two hearts/Flat/two_hearts_flat.svg

<svg width="32" height="32" viewBox="0 0 32 32" fill="none" xmlns="http://www.w3.org/2000/svg">
<path d="M23.5 3.76923C23.5 3.76923 24.5049 2.29192 25.8244 2.06984C29.0827 1.52913 30.4225 4.24236 29.8845 6.26038C28.9203 9.85227 23.5 13 23.5 13C23.5 13 18.0797 9.85227 17.1155 6.26038C16.5775 4.24236 17.9173 1.52913 21.1756 2.06984C22.485 2.29192 23.5 3.76923 23.5 3.76923Z" fill="#F92F60"/>
<path d="M12.006 14.8941C12.006 14.8941 13.5641 12.4792 15.5917 12.1154C20.6056 11.2263 22.6631 15.662 21.8142 18.9661C20.326 24.8569 11.996 30 11.996 30C11.996 30 3.66604 24.8468 2.17783 18.9661C1.34883 15.662 3.41634 11.2263 8.42031 12.1154C10.4479 12.4792 12.006 14.8941 12.006 14.8941Z" fill="#F92F60"/>
</svg>

<svg xmlns="http://www.w3.org/2000/svg" width="32" height="32" fill="none"><path fill="#F92F60" d="M23.5 3.77s1.005-1.478 2.324-1.7c3.259-.54 4.598 2.172 4.06 4.19C28.92 9.852 23.5 13 23.5 13s-5.42-3.148-6.384-6.74c-.538-2.018.801-4.73 4.06-4.19 1.309.222 2.324 1.7 2.324 1.7ZM12.006 14.894s1.558-2.415 3.586-2.779c5.014-.889 7.071 3.547 6.222 6.851C20.326 24.856 11.996 30 11.996 30s-8.33-5.153-9.818-11.034c-.83-3.304 1.238-7.74 6.242-6.85 2.028.363 3.586 2.778 3.586 2.778Z"/></svg>
